**kern	**kern
*part1	*part1
*staff2	*staff1
*I"Piano	*
*I'Pno.	*
*clefF4	*clefG2
*k[]	*k[]
*M4/4	*M4/4
=1	=1
2C 2G	2g 2ee
2D 2A	2f#X 2dd
=2	=2
1G 1B	1g 1dd
=3||	=3||
2C 2G	2e 2cc
2D 2A	2f#X 2cc
=4	=4
1FF 1D	1g 1b
=5||	=5||
2C 2G	2g 2cc 2ee
2D 2A	2f#X 2cc 2dd
=6	=6
1GG 1G	1g 1b 1dd
=7||	=7||
2A 2e	2a 2cc
2G 2d	2b 2dd
=8	=8
1C 1G	1cc 1ee
==	==
*-	*-
!!!system-decoration: {(s1,s2)}
